**kern	**kern	**dynam
*part1	*part1	*part1
*staff2	*staff1	*
*I"Piano	*	*
*clefF4	*clefG2	*
*k[f#]	*k[f#]	*
=1	=1	=1
!	!LO:TX:a:i:t=dim.	!
4BB] 4G]	(4fn] 4g] 4dd]	.
8C [8G	8e [8g	.
8D 8G] 8c	8d) 8g] 8b	.
8r	8r	.
8D' 8F#X 8c	8d' 8a	.
=	=	=
8G' 8B	8d' 8g	.
8r	8r	.
8c#X'	8r	p
8d'	4r	.
8r	.	.
8c#'	8r	.
=	=	=
[4.d	4r	<
.	8B' 8e#X 8g#X	.
4d]	8cn' 8f# 8b	.
.	8r	[
8D' 8d	8c' 8f# 8a	>
=	=	=
8G' 8d	8B' 8gn	.
8r	8r	]
8C#X'	8r	.
8D'	4r	.
8r	.	.
8C#'	8r	.
=	=	=
[4.D	4r	<
*	*clefF4	*
.	8E#X 8G#X	.
4D]	8B 8d	[ >
.	8r	.
8DD' 8D	8F#' 8A 8cn	.
=	=	=
8GG' 8D	8Gn' 8B	]
8r	8r	.
([8C#X	8r	.
*	*clefG2	*
8C#L]	[4.B [4.g	.
*^	*	*
[8D	4D	.	.
8BBJ	.	.	.
*v	*v	*	*
=	=	=
4GG;) 4D]	4B;] 4g]	.
8r	8r	.
4r	4r	.
==	==	==
*-	*-	*-
!!!system-decoration: {(s1,s2)}
